icons/googlepodcasts.svg

<svg width="32" height="32" viewBox="0 0 32 32" fill="none" xmlns="http://www.w3.org/2000/svg">
<path d="M3.36627 28.6337C0.910867 26.1783 0 22.1783 0 16C0 9.82167 0.910867 5.82167 3.36627 3.36627C5.82167 0.910867 9.82167 0 16 0C22.1783 0 26.1783 0.910867 28.6337 3.36627C31.0891 5.82167 32 9.82167 32 16C32 22.1783 31.0891 26.1783 28.6337 28.6337C26.1783 31.0891 22.1783 32 16 32C9.82167 32 5.82167 31.0891 3.36627 28.6337Z" fill="white"/>
<path fill-rule="evenodd" clip-rule="evenodd" d="M16 5.5C16.7364 5.5 17.3333 6.09695 17.3333 6.83333V8.16667C17.3333 8.90305 16.7364 9.5 16 9.5C15.2636 9.5 14.6667 8.90305 14.6667 8.16667V6.83333C14.6667 6.09695 15.2636 5.5 16 5.5Z" fill="#FAB908"/>
<path fill-rule="evenodd" clip-rule="evenodd" d="M16 22.5C16.7364 22.5 17.3333 23.097 17.3333 23.8333V25.1667C17.3333 25.903 16.7364 26.5 16 26.5C15.2636 26.5 14.6667 25.903 14.6667 25.1667V23.8333C14.6667 23.097 15.2636 22.5 16 22.5Z" fill="#FAB908"/>
<path fill-rule="evenodd" clip-rule="evenodd" d="M16 10.8333C16.7364 10.8333 17.3333 11.4303 17.3333 12.1667V19.8333C17.3333 20.5697 16.7364 21.1667 16 21.1667C15.2636 21.1667 14.6667 20.5697 14.6667 19.8333V12.1667C14.6667 11.4303 15.2636 10.8333 16 10.8333Z" fill="#FAB908"/>
<path fill-rule="evenodd" clip-rule="evenodd" d="M11.3333 9.66666C12.0697 9.66666 12.6667 10.2636 12.6667 11V15.6667C12.6667 16.403 12.0697 17 11.3333 17C10.597 17 10 16.403 10 15.6667V11C10 10.2636 10.597 9.66666 11.3333 9.66666Z" fill="#EA4335"/>
<path fill-rule="evenodd" clip-rule="evenodd" d="M11.3333 18.3333C12.0697 18.3333 12.6667 18.9303 12.6667 19.6667V21C12.6667 21.7364 12.0697 22.3333 11.3333 22.3333C10.597 22.3333 10 21.7364 10 21V19.6667C10 18.9303 10.597 18.3333 11.3333 18.3333Z" fill="#EA4335"/>
<path fill-rule="evenodd" clip-rule="evenodd" d="M20.6667 15C21.4031 15 22 15.597 22 16.3333V21C22 21.7364 21.4031 22.3333 20.6667 22.3333C19.9303 22.3333 19.3333 21.7364 19.3333 21V16.3333C19.3333 15.597 19.9303 15 20.6667 15Z" fill="#34A853"/>
<path fill-rule="evenodd" clip-rule="evenodd" d="M20.6667 9.66666C21.4031 9.66666 22 10.2636 22 11V12.3333C22 13.0697 21.4031 13.6667 20.6667 13.6667C19.9303 13.6667 19.3333 13.0697 19.3333 12.3333V11C19.3333 10.2636 19.9303 9.66666 20.6667 9.66666Z" fill="#34A853"/>
<path fill-rule="evenodd" clip-rule="evenodd" d="M25.3333 14C26.0697 14 26.6667 14.597 26.6667 15.3333V16.6667C26.6667 17.403 26.0697 18 25.3333 18C24.597 18 24 17.403 24 16.6667V15.3333C24 14.597 24.597 14 25.3333 14Z" fill="#4285F4"/>
<path fill-rule="evenodd" clip-rule="evenodd" d="M6.66668 14C7.40306 14 8.00001 14.597 8.00001 15.3333V16.6667C8.00001 17.403 7.40306 18 6.66668 18C5.9303 18 5.33334 17.403 5.33334 16.6667V15.3333C5.33334 14.597 5.9303 14 6.66668 14Z" fill="#0066D9"/>
</svg>

<svg xmlns="http://www.w3.org/2000/svg" width="32" height="32" fill="none" viewBox="0 0 32 32">
  <path fill="#fff" d="M3.366 28.634C.911 26.178 0 22.178 0 16S.91 5.822 3.366 3.366C5.822.911 9.822 0 16 0s10.178.91 12.634 3.366C31.089 5.822 32 9.822 32 16s-.91 10.178-3.366 12.634C26.178 31.089 22.178 32 16 32s-10.178-.91-12.634-3.366Z"/>
  <path fill="#FAB908" fill-rule="evenodd" d="M16 5.5c.736 0 1.333.597 1.333 1.333v1.334a1.333 1.333 0 0 1-2.666 0V6.833c0-.736.597-1.333 1.333-1.333Zm0 17c.736 0 1.333.597 1.333 1.333v1.334a1.333 1.333 0 0 1-2.666 0v-1.334c0-.736.597-1.333 1.333-1.333Zm0-11.667c.736 0 1.333.597 1.333 1.334v7.666a1.333 1.333 0 0 1-2.666 0v-7.666c0-.737.597-1.334 1.333-1.334Z" clip-rule="evenodd"/>
  <path fill="#EA4335" fill-rule="evenodd" d="M11.333 9.667c.737 0 1.334.597 1.334 1.333v4.667a1.333 1.333 0 0 1-2.667 0V11c0-.736.597-1.333 1.333-1.333Zm0 8.666c.737 0 1.334.597 1.334 1.334V21A1.333 1.333 0 0 1 10 21v-1.333c0-.737.597-1.334 1.333-1.334Z" clip-rule="evenodd"/>
  <path fill="#34A853" fill-rule="evenodd" d="M20.667 15c.736 0 1.333.597 1.333 1.333V21a1.333 1.333 0 1 1-2.667 0v-4.667c0-.736.597-1.333 1.334-1.333Zm0-5.333c.736 0 1.333.597 1.333 1.333v1.333a1.333 1.333 0 1 1-2.667 0V11c0-.736.597-1.333 1.334-1.333Z" clip-rule="evenodd"/>
  <path fill="#4285F4" fill-rule="evenodd" d="M25.333 14c.737 0 1.334.597 1.334 1.333v1.334a1.333 1.333 0 0 1-2.667 0v-1.334c0-.736.597-1.333 1.333-1.333Z" clip-rule="evenodd"/>
  <path fill="#0066D9" fill-rule="evenodd" d="M6.667 14C7.403 14 8 14.597 8 15.333v1.334a1.333 1.333 0 0 1-2.667 0v-1.334c0-.736.597-1.333 1.334-1.333Z" clip-rule="evenodd"/>
</svg>
